icons/square-percent.svg

<svg xmlns="http://www.w3.org/2000/svg" width="24" height="24" viewBox="0 0 24 24">
  <path d="M20,2 C21.1045695,2 22,2.8954305 22,4 L22,20 C22,21.1045695 21.1045695,22 20,22 L4,22 C2.8954305,22 2,21.1045695 2,20 L2,4 C2,2.8954305 2.8954305,2 4,2 L20,2 Z M16.5606602,14.4393398 C15.9748737,13.8535534 15.0251263,13.8535534 14.4393398,14.4393398 C13.8535534,15.0251263 13.8535534,15.9748737 14.4393398,16.5606602 C15.0251263,17.1464466 15.9748737,17.1464466 16.5606602,16.5606602 C17.1464466,15.9748737 17.1464466,15.0251263 16.5606602,14.4393398 Z M16.7071068,7.29289322 C16.3165825,6.90236893 15.6834175,6.90236893 15.2928932,7.29289322 L15.2928932,7.29289322 L7.29289322,15.2928932 L7.20970461,15.3871006 C6.90467972,15.7793918 6.93240926,16.3466228 7.29289322,16.7071068 C7.68341751,17.0976311 8.31658249,17.0976311 8.70710678,16.7071068 L8.70710678,16.7071068 L16.7071068,8.70710678 L16.7902954,8.61289944 C17.0953203,8.22060824 17.0675907,7.65337718 16.7071068,7.29289322 Z M9.56066017,7.43933983 C8.97487373,6.85355339 8.02512627,6.85355339 7.43933983,7.43933983 C6.85355339,8.02512627 6.85355339,8.97487373 7.43933983,9.56066017 C8.02512627,10.1464466 8.97487373,10.1464466 9.56066017,9.56066017 C10.1464466,8.97487373 10.1464466,8.02512627 9.56066017,7.43933983 Z"/>
</svg>

<svg xmlns="http://www.w3.org/2000/svg" viewBox="0 0 24 24">
  <path d="M20 2a2 2 0 0 1 2 2v16a2 2 0 0 1-2 2H4a2 2 0 0 1-2-2V4c0-1.1.9-2 2-2h16zm-3.44 12.44a1.5 1.5 0 1 0-2.12 2.12 1.5 1.5 0 0 0 2.12-2.12zm.15-7.15a1 1 0 0 0-1.42 0l-8 8-.08.1a1 1 0 0 0 1.5 1.32l8-8 .08-.1a1 1 0 0 0-.08-1.32zm-7.15.15a1.5 1.5 0 1 0-2.12 2.12 1.5 1.5 0 0 0 2.12-2.12z"/>
</svg>
